img/svg/social/youtube.svg

<svg width="17.6" height="12" fill="none" xmlns="http://www.w3.org/2000/svg"><path d="M1.81 11.64a1.994 1.994 0 01-1.35-1.28C-.13 8.79-.3 2.22.83.93c.37-.42.9-.68 1.48-.72 3.03-.32 12.4-.28 13.48.1.3.1.58.26.81.48.23.21.41.47.52.77.64 1.62.66 7.52-.09 9.08-.2.41-.53.74-.95.94-1.13.55-12.77.54-14.27.06zm4.81-3.08l5.44-2.76-5.44-2.78v5.54z" fill="#5E60CE" fill-rule="evenodd"/></svg>

<svg width="17.600006" height="12.000000" viewBox="0 0 17.6 12" fill="none" xmlns="http://www.w3.org/2000/svg" xmlns:xlink="http://www.w3.org/1999/xlink">
	<desc>
			Created with Pixso.
	</desc>
	<defs/>
	<path id="Vector" d="M1.81 11.64C1.49 11.55 1.2 11.38 0.97 11.16C0.74 10.94 0.56 10.66 0.46 10.36C-0.13 8.79 -0.3 2.22 0.83 0.93C1.2 0.51 1.73 0.25 2.31 0.21C5.34 -0.11 14.71 -0.07 15.79 0.31C16.09 0.41 16.37 0.57 16.6 0.79C16.83 1 17.01 1.26 17.12 1.56C17.76 3.18 17.78 9.08 17.03 10.64C16.83 11.05 16.5 11.38 16.08 11.58C14.95 12.13 3.31 12.12 1.81 11.64ZM6.62 8.56L12.06 5.8L6.62 3.02L6.62 8.56Z" fill="#5E60CE" fill-opacity="1.000000" fill-rule="evenodd"/>
</svg>
